X: 26777
T: Miller Of Droghan, The
R: reel
M: 4/4
K: Amajor
A2 cA EAcA|Fffg afec|A2 cA eAcB|AFAB cecB|
A2 cA EAcA|Fffg ~a2 fa|gafg ec ~c2|AFAB c2 (3cde|
fF ~F2 EFCF|EFAB cdcB|AF ~F2 EFCF|EFAB cB (3cde|
fF ~F2 EFCF|EFAB cdcB|AF ~F2 EFCF|EFAB cdcB|

